X: 13935
T: Fr. Kelly's Farewell
R: jig
M: 6/8
K: Gmajor
GF|DGA B2G|cBA BGE|DGB dcB|cBc AGF|
DGA B2G|cBA BGE|DGB dcB|cAF G:|
Bd|gdB GDB,|G,B,D GAB|cBc Aag|
(3fga f def|gdB GDB,|G,B,D GAB|
c3 (3Bcd B|cAF G:|

